X: 17883
T: Horse's Leotard, The
R: jig
M: 6/8
K: Dmixolydian
|:D2 D AGE|GAB c3|D2 D AGE|GcA GEC|
D2 A AGE|GAB c2 d|edc dcA|GcA GEC:|
|:ABc d2 d|edc d2 c|ABc d2 e|=fed cAG|
ABc d2 d|edc dcA|GAB cBA|GcA GEC:|

